X:065
U: ~ = !turn!
%%topmargin 3cm
T:Farewell to Connaught
B:Traditional Irish Fiddle Tunes. Randy Miller and Jack Perron.
Z:Transcribed by Ralph Palmer
R:Reel
M:C|
L:1/8
K:G
D2 ED ((3EFG) AB | cBcd Pc2 AG | Ad{/e}d^c d2 =cd | edcd ed d2 |
(3.D.D.D ED ((3EFG) AB | cBcd PdAGc | ((3ABc) AG ((3EFG) AB | cAGE {/F}ED D2 ::
Pgfga Pg2 ed | cded PcA A2 | Pagab Paged | ea{/b}ag edde |
Pgfga gede | cded cAGc | ((3ABc) AG ((3EFG) AB | cAGE {/F}ED D2 :|]
